web/public/background-6.svg

<svg style="object-fit:cover" id="my-svg" version="1" baseProfile="full" width="100%" height="100%" viewBox="0 0 2560 969" xmlns="http://www.w3.org/2000/svg"><rect width="2560" height="969" fill="#ffffff"/><path transform="scale(1, 1)" d="M 0,969 V 0,678 C 400.66666666666663,791 801.3333333333333,904 1228,904 C 1654.6666666666667,904 2107.3333333333335,791 2560,678 C 2560,678 2560,969 2560,969 Z" stroke="none" stroke-width="0" fill="#f5df4d90" class="transition-all duration-300 ease-in-out delay-150" style="transform-origin: center center;"/><path transform="scale(1, 1)" d="M 0,969 V 0,1017 C 496.66666666666663,944.5 993.3333333333333,872 1420,872 C 1846.6666666666667,872 2203.3333333333335,944.5 2560,1017 C 2560,1017 2560,969 2560,969 Z" stroke="none" stroke-width="0" fill="#f5df4dff" class="transition-all duration-300 ease-in-out delay-150" style="transform-origin: center center;"/></svg>

<svg style="object-fit:cover" version="1" baseProfile="full" viewBox="0 0 2560 969" xmlns="http://www.w3.org/2000/svg"><path fill="#fff" d="M0 0H2560V969H0z"/><path d="M0 969V0v678c400.667 113 801.333 226 1228 226 426.667 0 879.333-113 1332-226v291z" fill="#f5df4d90" class="transition-all duration-300 ease-in-out delay-150" style="transform-origin:center center"/><path d="M0 969V0v1017c496.667-72.5 993.333-145 1420-145 426.667 0 783.333 72.5 1140 145v-48z" fill="#f5df4dff" class="transition-all duration-300 ease-in-out delay-150" style="transform-origin:center center"/></svg>
